X:1
T:Variations on Holst's Thaxted
T:Variations on Holst's Thaxted
T:Dekkadeci
C:Jaclyn Chang
%%score { ( 1 2 7 8 ) | ( 3 4 5 6 ) }
L:1/8
Q:1/4=72
M:3/4
K:Bb
V:1 treble nm="Piano" snm="Pno."
V:2 treble 
V:7 treble 
V:8 treble 
V:3 bass 
V:4 bass 
V:5 bass 
V:6 bass 
V:1
"^Andante"!mp! DF | G3 B A>F | Bc B2 A2 | GA G2 F2 | D4 DF | G3 B A>F | Bc d2 d2 | dc B2 c2 | %8
 B4 FD || C3 C B,D | C2 F2 FD | C3 C DF | G4 GA | B>B A2 G2 | F2 B2 D2 | CB, C2 D2 | F4 DF || %17
 G3 B A>F | Bc B2 A2 | GA G2 F2 | D4 DF | G3 B A>F | Bc d2 d2 | dc B2 c2 | B4 [DF]D || %25
 [F,A,C]3 [F,A,C] [G,B,][G,B,D] | [F,A,C]2 [A,CF]2 [B,DF][B,D] | [F,A,C]3 [F,A,C] [F,B,D][B,DF] | %28
 [B,EG]4 [CEG][CEA] | [DGB]>[DGB] [DFA]2 [B,EG]2 | [B,DF]2 [CEB]2 [F,B,D]2 | %31
 [G,C][G,B,] [G,C]2 [G,B,D]2 | [A,CF]4 [B,D][B,F] || [EG]3 [EB] [EA][EF] | [FB][Ec] [DB]2 [FA]2 | %35
 [EG][EA] [EG]2 [CF]2 | [B,D]4 [A,D][A,F] | [B,G]3 [EB] [CA][CF] | [DB][Fc] [Fd]2 [Fd]2 | %39
 [Gd][Gc] [GB]2 [Fc]2 | [DFB]4 [B,F][B,D] || [A,C]3 [A,C] [G,B,][G,D] | [A,C]2 [A,F]2 [B,F][B,D] | %43
 [A,C]3!<(! [A,C] [B,D][B,F] | [B,G]4 [CG][CA] | [DB]>[DB] [DA]2 [EG]2 | [DF]2 [CB]2 [B,D]2 | %47
 [G,C][G,B,] [G,C]2 [G,D]2!<)! |!f! [A,CF]2 z2 [B,D][DF] || [EG]3 [GB] [EA]>[EF] | %50
 [FB][Ac] [FB]2 [FA]2 | [EG][FA] [EG]2 [CF]2 | [B,D]4 [A,D][DF] | [EG]3 [GB] [FA]>[CF] | %54
 [FB][Ac] [Bd]2 [Bd]2 | [Bd][Ac] [GB]2 [Ac]2 | [FB]4[K:bass] [B,,F,][B,,D,] || %57
[K:treble]!mp! F/4A/4c/4f/4f/4a/4c'/4f'/4 f'/4c'/4a/4f/4f/4c/4A/4F/4 F/4B/4d/4f/4f/4b/4d'/4f'/4 | %58
 f'/4c'/4a/4f/4f/4c/4A/4F/4 F/4A/4c/4f/4f/4a/4c'/4f'/4 f'/4d'/4b/4f/4f/4d/4B/4F/4 | %59
 F/4A/4c/4f/4f/4a/4c'/4f'/4 f'/4c'/4a/4f/4f/4c/4A/4F/4 F/4B/4d/4f/4f/4b/4d'/4f'/4 | %60
 e'/4b/4g/4e/4e/4B/4G/4E/4 E/4G/4B/4e/4e/4g/4b/4e'/4 e'/4c'/4g/4e/4e/4c/4A/4E/4 | %61
 G/4B/4d/4g/4g/4b/4d'/4g'/4 f'/4d'/4a/4f/4f/4d/4A/4F/4 E/4G/4B/4e/4e/4g/4b/4e'/4 | %62
 d'/4b/4f/4d/4d/4B/4F/4D/4 E/4G/4B/4e/4e/4g/4b/4e'/4 d'/4b/4f/4d/4d/4B/4F/4D/4 | %63
 G/4c/4e/4g/4g/4c'/4e'/4g'/4 g'/4e'/4c'/4g/4g/4e/4c/4G/4 G/4B/4d/4g/4g/4b/4d'/4g'/4 | %64
 f'/4c'/4a/4f/4f/4c/4A/4F/4 F/4A/4c/4f/4f/4a/4c'/4f'/4 [Dd][Ff] || %65
 [Gg]3 [Bb] (6:4:3[Aa]2- [Aa]/[Ff]/ | [Bb][cc'] [Bb]2 [Aa]2 | [Gg][Aa] [Gg]2 [Ff]2 | %68
 [Dd]4 [Dd][Ff] | [Gg]3 [Bb] (6:4:3[Aa]2- [Aa]/[Ff]/ | [Bb][cc'] [dd']2 [dd']2 | %71
 [dd'][cc'] [Bb]2 [cc']2 | [Bb]4!p! f'/4b/4a/4b/4d'/4b/4a/4b/4 || %73
 c'/4a/4^g/4a/4g/4a/4g/4a/4 g/4a/4g/4a/4c'/4a/4g/4a/4 b/4f/4=e/4f/4d'/4f/4e/4f/4 | %74
 c'/4a/4^g/4a/4g/4a/4g/4a/4 f'/4a/4g/4a/4g/4a/4g/4a/4 f'/4b/4a/4b/4d'/4b/4a/4b/4 | %75
 c'/4a/4^g/4a/4g/4a/4g/4a/4 g/4a/4g/4a/4c'/4a/4g/4a/4 d'/4b/4a/4b/4f'/4b/4a/4b/4 | %76
!8va(! g'/4d'/4^c'/4d'/4c'/4d'/4c'/4d'/4 c'/4d'/4c'/4d'/4c'/4d'/4c'/4d'/4 g'/4e'/4d'/4e'/4a'/4e'/4d'/4e'/4 | %77
 b'/4g'/4^f'/4g'/4f'/4g'/4b'/4g'/4 a'/4=f'/4=e'/4f'/4e'/4f'/4e'/4f'/4 g'/4_e'/4d'/4e'/4d'/4e'/4d'/4e'/4 | %78
 f'/4d'/4^c'/4d'/4c'/4d'/4c'/4d'/4 b'/4e'/4d'/4e'/4d'/4e'/4d'/4e'/4!8va)! d'/4b/4a/4b/4a/4b/4a/4b/4 | %79
!<(! c'/4g/4^f/4g/4b/4g/4f/4g/4 c'/4g/4f/4g/4f/4g/4f/4g/4 d'/4g/4f/4g/4f/4g/4f/4g/4 | %80
 f'/4f/4=e/4f/4e/4f/4e/4f/4 f'/4c'/4a/4f/4c/4f/4a/4f/4!<)!!mf!"_sweeping" [DBd][FBf] || %81
 [Geg]3 [Beb] [Aea]>[Fcf] | [Bfb][cfc'] [Bfb]2 [Afa]2 | [Gdg][Ada] [Gdg]2 [F_Af]2 | %84
 [DGd]4 [D=Bd][FBf] | [Gcg]3 [Beb] [Afa]>[Fcf] | [Bfb][cfc'] [dfd']2 [d^fd']2 | %87
 [dgd'][cgc'] [Beb]2 [cfc']2 | [Bfb]4!f! [FBdf][DFBd] || [CFAc]3 [CFAc] [B,DGB][DGBd] | %90
 [CFAc]2 [FAcf]2 [FBdf][DFBd] | [CFAc]3 [CFAc] [DF_A=Bd][FABdf] | [GB^c=eg]4 [GBceg][A=c_e^fa] | %93
 [Bdgb]>[Bdgb] [Ad^fa]2 [GBdg]2 | [F_A=Bdf]2 [_B^c=egb]2 [DFBd]2 | %95
 [CEGc][B,EGB] [CEGc]2 [DF_A=Bd]2 | [FAcf]4!ff! [DFBd][FBdf] || [GBeg]3 [Begb] [Acea]>[FAcef] | %98
 [Bdfb][cdfc'] [Bdfb]2 [Adfa]2 | [GBdg][Adfa] [GBdg]2 [F_ABdf]2 | [DG=Bd]4 [DFAd][FAdf] | %101
 [GBeg]3 [Begb] [Acfa]>[FAcf] | [Bdfb][cfac'] [dfbd']2 [d^fad']2 | %103
 [dgbd'][cd^fac'] [Begb]2 [c=fbc']2- |[M:5/4] [c-f-bc'-]2 !fermata![cfac']6!pp! z2 || %105
[M:3/4] z2 z!8va(! [f'b'] [f'a']>[c'f'] | [f'b'][a'c''] [f'b']2 z2 | z4 [c'f']2 | [bd']4 z2 | %109
 z2 z [f'b'] [f'a']>[c'f'] | [f'b'][a'c''] [b'd'']2 [b'd'']2 | %111
"_rit." [b'd''][a'c''] [f'b']2 [a'c'']2 | !arpeggio!!fermata![d'f'b']6 | %113
 !arpeggio!!fermata![^c'=e'g'b']6 | !arpeggio!!fermata![c'e'g'b']6 | %115
 !arpeggio!!fermata![_c'e'_g'b']6 | z4 d'2- | d'6 | !arpeggio!!fermata![d'f'b'd'']6!8va)! |] %119
V:2
 B,2 | E4 E2 | F4 F2 | E4 C2 | B,4 A,2 | E4 E2 | F4 [FB]2 | G4 G2 | [DF]4 B,2 || A,4 B,2 | %10
 A,4 B,2 | A,4 B,2 | E4 E2 | D2 D2 E2 | D2 E2 B,2 | G,4 B,2 | C2 B,2 B,2 || E4 E2 | F4 F2 | E4 C2 | %20
 B,4 A,2 | E4 E2 | F4 [FB]2 | G4 G2 | [DF]4 B,2 || x6 | x6 | x6 | x6 | x6 | x6 | x6 | x6 || x6 | %34
 x6 | x6 | x6 | x6 | x6 | x6 | x6 || x6 | x6 | x6 | x6 | x6 | x6 | x6 | x6 || x6 | x6 | x6 | x6 | %53
 x6 | x6 | x6 | x4[K:bass] x2 ||[K:treble] x6 | x6 | x6 | x6 | x6 | x6 | x6 | x6 || x6 | x6 | x6 | %68
 x6 | x6 | x6 | x6 | x6 || x6 | x6 | x6 |!8va(! x6 | x6 | x4!8va)! x2 | x6 | x6 || x6 | x6 | x6 | %84
 x6 | x6 | x6 | x6 | x6 || x6 | x6 | x6 | x6 | x6 | x6 | x6 | x6 || x6 | x6 | x6 | x6 | x6 | x6 | %103
 x6 |[M:5/4] x10 ||[M:3/4] x3!8va(! x3 | x6 | x6 | x6 | x6 | x6 | x6 | x6 | x6 | x6 | x6 | %116
 z4 z f'- | f'6 | x6!8va)! |] %119
V:3
 F,2 | B,4 A,2 | B,4 B,2 | B,4 A,2 | B,4 A,2 | B,4 A,2 | B,4 B,2 | B,4 C2 | B,4 F,2 || A,4 G,2 | %10
 A,4 F,2 | F,4 F,2 | B,4 C2 | B,2 B,2 B,2 | B,2 B,2 F,2 | G,4 G,2 | F,4 F,2 || %17
 [E,B,]G,, B,,E, [C,A,]E, | [D,B,]F,, B,,D, [D,B,]F, | [E,B,]G,, B,,E, [F,A,]C, | %20
 G,D, B,,G,, [F,A,]F, | [E,B,]G,, B,,E, [C,A,]E, | [D,B,]F,, B,,D, [B,,B,]D, | %23
 [E,B,]B,, E,G, [E,C]F, | [B,,F,B,]F, D,B,, D,2 || z z/ z/4 (F,,/8F,/8 .F,,) z z2 | %26
 z z/ z/4 (F,,/8F,/8 .F,,) z z2 | z z/ z/4 (F,,/8F,/8 .F,,) z z2 | z z/ z/4 (E,,/8E,/8 .E,,) z z2 | %29
 z z/ z/4 (F,,/8F,/8 .F,,) z/ z/4 (E,,/8E,/8 .E,,) z/ z/4 (D,,/8D,/8 | %30
 .D,,) z/ z/4 (C,,/8C,/8 .C,,) z/ z/4 (B,,,/8B,,/8 .B,,,) z/ z/4 (E,,/8E,/8 | %31
 .E,,) z/ z/4 (E,,/8E,/8 .E,,) z/ z/4 (D,,/8D,/8 .D,,) z/ z/4 (F,,/8F,/8 | %32
 .F,,) z/ z/4 (F,,/8F,/8 .F,,) z (3F,,D,F, || (3E,B,,G,, (3B,,G,,E,, (3F,,A,,E, | %34
 (3D,E,C, (3B,,D,F, (3F,E,D, | (3E,G,,B,, (3E,,G,,B,, (3A,,C,E, | %36
 (3D,C,B,, (3A,,B,,G,, (3G,,A,,F,, | (3E,,B,,E, (3G,F,E, (3F,A,,F, | (3F,D,F, (3F,C,F, (3F,B,,F, | %39
 (3E,B,,D, (3E,B,,G,, (3F,,C,A,, | (3B,,D,F, (3B,F,D, B,,/D,/F,/B,,/ || %41
 A,,/C,/F,/A,/ F,/C,/A,,/C,/ B,,/D,/G,/D,/ | F,/C,/A,,/F,,/ A,,/C,/F,/C,/ F,/D,/B,,/D,/ | %43
 F,/C,/A,,/C,/ F,/C,/A,,/F,,/ B,,/D,/F,/D,/ | E,/B,,/G,,/E,,/ G,,/B,,/E,/B,,/ C,/E,/G,/E,/ | %45
 D,/G,/D,/B,,/ D,/F,/D,/B,,/ E,/G,/E,/B,,/ | D,/F,/D,/B,,/ G,,/B,,/C,/E,/ D,/B,,/D,/F,/ | %47
 E,/C,/E,/G,/ E,/C,/G,,/C,/ B,,/D,/B,,/G,,/ | %48
 !////-!F,,/4F,/4!p!!////-!F,,/4F,/4!////-!F,,/F,/ !////-!F,,2 F,2 || !////-!E,,3 E,3 | %50
 !////-!D,,3 D,3 | !////-!E,,2 E,2 !////-!F,, F, | !////-!G,,2 G,2 !////-!F,, F, | %53
 !////-!E,,2 E,2 !////-!F,, F, | !////-!D,,2 D,2 !////-!B,,, B,, | !////-!E,,2 E,2 !////-!F,, F, | %56
 !////-!B,,,2 B,,2 !////-!B,,, F,, || [F,,A,,C,]3 [F,,A,,C,] [G,,B,,][G,,B,,D,] | %58
 [F,,A,,C,]2 [F,,A,,C,F,]2 [F,,B,,D,F,][F,,B,,D,] | [F,,A,,C,]3 [F,,A,,C,] [F,,B,,D,][F,,B,,D,F,] | %60
 [G,,B,,E,G,]4 [G,,C,E,G,][A,,C,E,A,] | [B,,D,G,B,]>[B,,D,G,B,] [A,,D,F,A,]2 [G,,B,,E,G,]2 | %62
 [F,,B,,D,F,]2 [C,E,B,]2 [F,,B,,D,]2 | [G,,C,][G,,B,,] [G,,C,]2 [G,,B,,D,]2 | %64
 [F,,A,,C,F,]4 (6:4:6F,,/D,/F,/B,/F,/D,/ || %65
 (6:4:6E,,/B,,/E,/G,/E,/B,,/ (6:4:6G,,/E,/G,/B,/G,/E,/ (6:4:6F,,/C,/F,/A,/F,/C,/ | %66
 (6:4:6D,,/B,,/D,/F,/D,/B,,/ (6:4:6B,,,/F,,/B,,/D,/B,,/F,,/ (6:4:6D,,/A,,/D,/F,/D,/A,,/ | %67
 (6:4:6E,,/B,,/E,/G,/E,/B,,/ (6:4:6E,,/B,,/E,/G,/E,/B,,/ (6:4:6F,,/C,/F,/A,/F,/C,/ | %68
 (6:4:6G,,/D,/G,/B,/G,/D,/ (6:4:6G,,/D,/G,/B,/G,/D,/ (6:4:6F,,/D,/F,/A,/F,/D,/ | %69
 (6:4:6E,,/B,,/E,/G,/E,/B,,/ (6:4:6E,,/B,,/E,/G,/E,/B,,/ (6:4:6E,,/C,/E,/A,/E,/C,/ | %70
 (6:4:6D,,/B,,/D,/F,/D,/B,,/ (6:4:6D,,/B,,/D,/F,/D,/B,,/ (6:4:6B,,,/F,,/B,,/D,/B,,/F,,/ | %71
 (6:4:6E,,/B,,/E,/G,/E,/B,,/ (6:4:6E,,/B,,/E,/G,/E,/B,,/ (6:4:6F,,/C,/F,/A,/F,/C,/ | %72
 (6:4:6B,,,/F,,/B,,/D,/B,,/F,,/ (6:4:6B,,,/F,,/B,,/D,/B,,/F,,/ B,,,/F,,/B,,/F,/ || %73
[K:treble] [FA][FAc] [FAc][FA] [FBd][FB] | [FA][FAc] [FAc][FA] [FB][FBd] | %75
 [FA][FAc] [FAc][FA] [FBd][FB] | [GB][GBd] [GBd][GB] [Gce][Ac] | [GBd][GB] [FA][FAd] [GBe][GB] | %78
 [FB][FBd] [EGc][EG] [DF][DFB] | [EG][EGc] [EGc][EG] [GBd][GB] | %80
 [FA][FAc] [FAc]/[FA]/[CF]/[A,C]/[K:bass] [F,,F,]/D,/B,,/F,,/ || %81
 [E,,,E,,]/G,,/B,,/E,/ [G,,G,]/E,/B,,/G,,/ [A,,,A,,]/C,/E,/A,/ | %82
 [B,,B,]/F,/D,/B,,/ [B,,,B,,]/D,/F,/B,/ [A,,A,]/F,/D,/A,,/ | %83
 [B,,,B,,]/D,/G,/B,/ [G,,G,]/D,/B,,/G,,/ [F,,,F,,]/_A,,/=B,,/D,/ | %84
 [G,,G,]/D,/B,,/G,,/ [G,,,G,,]/B,,/D,/G,/ [F,,F,]/D,/_A,,/F,,/ | %85
 [E,,,E,,]/G,,/C,/E,/ [G,,G,]/E,/C,/G,,/ [A,,,A,,]/C,/F,/A,/ | %86
 [B,,B,]/F,/D,/B,,/ [B,,,B,,]/D,/F,/B,/ [B,,B,]/^F,/D,/B,,/ | %87
 [G,,,G,,]/B,,/D,/G,/ [E,,E,]/B,,/G,,/E,,/ [F,,,F,,]/A,,/C,/F,/ | %88
 [B,,,B,,]/D,/F,/B,/ [D,D]/B,/F,/D,/ [B,,,B,,][D,,D,] || %89
 [F,,F,](3[F,,,F,,]/[F,,,F,,]/[F,,,F,,]/ [F,,,F,,][F,,,F,,] [B,,,B,,][G,,,G,,] | %90
 [F,,,F,,](3[F,,,F,,]/[F,,,F,,]/[F,,,F,,]/ [F,,,F,,][A,,,A,,] [B,,,B,,][G,,,G,,] | %91
 [F,,,F,,](3[F,,,F,,]/[F,,,F,,]/[F,,,F,,]/ [F,,,F,,][F,,,F,,] [_A,,,_A,,][F,,,F,,] | %92
 [G,,,G,,](3[G,,,G,,]/[G,,,G,,]/[G,,,G,,]/ [G,,,G,,][^C,,^C,] [B,,,B,,][A,,,A,,] | %93
 [G,,,G,,](3[G,,,G,,]/[G,,,G,,]/[G,,,G,,]/ [A,,,A,,][^F,,,^F,,] [G,,,G,,][B,,,B,,] | %94
 [F,,,F,,](3[F,,,F,,]/[F,,,F,,]/[F,,,F,,]/ [G,,,G,,][A,,,A,,] [B,,,B,,][F,,,F,,] | %95
 [G,,,G,,](3[G,,,G,,]/[G,,,G,,]/[G,,,G,,]/ [G,,,G,,][C,,C,] [=B,,,=B,,][G,,,G,,] | %96
 [F,,,F,,](3[F,,,F,,]/[F,,,F,,]/[F,,,F,,]/ [F,,,F,,]/[G,,,G,,]/[A,,,A,,]/[B,,,B,,]/ [B,,,B,,]/[A,,,A,,]/[G,,,G,,]/[F,,,F,,]/ || %97
 [E,,,E,,]/[F,,,F,,]/[G,,,G,,]/[A,,,A,,]/ [B,,,B,,]/[C,,C,]/[D,,D,]/[E,,E,]/ [E,,E,]/[D,,D,]/[C,,C,]/[F,,F,]/ | %98
 [D,,D,]/[C,,C,]/[B,,,B,,]/[A,,,A,,]/ [B,,,B,,]/[C,,C,]/[D,,D,]/[B,,,B,,]/ [A,,,A,,]/[^C,,^C,]/[D,,D,]/[A,,,A,,]/ | %99
 [G,,,G,,]/[A,,,A,,]/[B,,,B,,]/[C,,C,]/ [B,,,B,,]/[A,,,A,,]/[G,,,G,,]/[^F,,,^F,,]/ [=F,,,=F,,]/[G,,,G,,]/[_A,,,_A,,]/[F,,,F,,]/ | %100
 [G,,,G,,]/[A,,,A,,]/[=B,,,=B,,]/[D,,D,]/ [G,,G,]/[D,,D,]/[B,,,B,,]/[G,,,G,,]/ [F,,,F,,]/[A,,,A,,]/[D,,D,]/[C,,C,]/ | %101
 [B,,,B,,]/[A,,,A,,]/[G,,,G,,]/[B,,,B,,]/ [E,,E,]/[B,,,B,,]/[G,,,G,,]/[B,,,B,,]/ [A,,,A,,]/[F,,,F,,]/[A,,,A,,]/[C,,C,]/ | %102
 [B,,,B,,]/[G,,,G,,]/[F,,,F,,]/[A,,,A,,]/ [B,,,B,,]/[C,,C,]/[D,,D,]/[F,,F,]/ [^F,,^F,]/[E,,E,]/[D,,D,]/[F,,F,]/ | %103
 [G,,G,]/[F,,F,]/[E,,E,]/[D,,D,]/ [E,,E,]/[D,,D,]/[C,,C,]/[=E,,=E,]/ [F,,F,]/[C,,C,]/[A,,,A,,]/[G,,,G,,]/ | %104
[M:5/4] [F,,,F,,]/[G,,,G,,]/[A,,,A,,]/[C,,C,]/ [F,,F,]/[C,,C,]/[A,,,A,,]/[G,,,G,,]/ !fermata![F,,,F,,]4 [D,,,D,,][F,,,F,,] || %105
[M:3/4] [G,,,G,,]3 z z2 | z4 [A,,,A,,]2 | [G,,,G,,][A,,,A,,] [G,,,G,,]2 z2 | %108
 z4 [D,,,D,,][F,,,F,,] | [G,,,G,,]3 z z2 | z4 [B,,,B,,][D,,D,] | [E,,E,]2 [F,,F,]2 [F,,F,][F,F] | %112
[K:treble] !arpeggio!!fermata![Bdfb]6 | !arpeggio!!fermata![B^c=egb]6 | %114
 !arpeggio!!fermata![Bcegb]6 | !arpeggio!!fermata![B_ce_gb]6 | B6- | !fermata!B6 | %118
 !arpeggio!!fermata![Bdfb]6 |] %119
V:4
 B,,2 | E,4 C,2 | D,4 D,2 | E,4 F,2 | G,4 F,2 | E,4 C,2 | D,4 B,,D, | E,4 E,2 | B,,4 D,2 || %9
 F,4 G,2 | A,4 D,2 | F,4 B,,2 | E,2 D,2 C,2 | G,2 F,2 E,2 | D,2 C,2 B,,2 | E,2 C,2 B,,2 | %16
 A,,2 G,,2 F,,B,, || x6 | x6 | x6 | x6 | x6 | x6 | x6 | x6 || x6 | x6 | x6 | x6 | x6 | x6 | x6 | %32
 x6 || x6 | x6 | x6 | x6 | x6 | x6 | x6 | x6 || x6 | x6 | x6 | x6 | x6 | x6 | x6 | x6 || x6 | x6 | %51
 x6 | x6 | x6 | x6 | x6 | x6 || x6 | x6 | x6 | x6 | x6 | x6 | x6 | x6 || x6 | x6 | x6 | x6 | x6 | %70
 x6 | x6 | x6 ||[K:treble] x6 | x6 | x6 | x6 | x6 | x6 | x6 | x4[K:bass] x2 || x6 | x6 | x6 | x6 | %85
 x6 | x6 | x6 | x6 || x6 | x6 | x6 | x6 | x6 | x6 | x6 | x6 || x6 | x6 | x6 | x6 | x6 | x6 | x6 | %104
[M:5/4] x10 ||[M:3/4] x6 | x6 | x6 | x6 | x6 | x6 | x6 |[K:treble] x6 | x6 | x6 | x6 | z d- d4- | %117
 d6 | x6 |] %119
V:5
 x2 | x6 | x6 | x6 | x6 | x6 | x6 | x6 | x6 || x6 | x6 | x6 | x6 | x6 | x6 | x6 | x6 || x6 | x6 | %19
 x6 | x6 | x6 | x6 | x6 | x6 || x6 | x6 | x6 | x6 | x6 | x6 | x6 | x6 || x6 | x6 | x6 | x6 | x6 | %38
 x6 | x6 | x6 || x6 | x6 | x6 | x6 | x6 | x6 | x6 | x6 || x6 | x6 | x6 | x6 | x6 | x6 | x6 | x6 || %57
 x6 | x6 | x6 | x6 | x6 | x6 | x6 | x6 || x6 | x6 | x6 | x6 | x6 | x6 | x6 | x6 ||[K:treble] x6 | %74
 x6 | x6 | x6 | x6 | x6 | x6 | x4[K:bass] x2 || x6 | x6 | x6 | x6 | x6 | x6 | x6 | x6 || x6 | x6 | %91
 x6 | x6 | x6 | x6 | x6 | x6 || x6 | x6 | x6 | x6 | x6 | x6 | x6 |[M:5/4] x10 ||[M:3/4] x6 | x6 | %107
 x6 | x6 | x6 | x6 | x6 |[K:treble] x6 | x6 | x6 | x6 | z2 f4- | f6 | x6 |] %119
V:6
 x2 | x6 | x6 | x6 | x6 | x6 | x6 | x6 | x6 || x6 | x6 | x6 | x6 | x6 | x6 | x6 | x6 || x6 | x6 | %19
 x6 | x6 | x6 | x6 | x6 | x6 || x6 | x6 | x6 | x6 | x6 | x6 | x6 | x6 || x6 | x6 | x6 | x6 | x6 | %38
 x6 | x6 | x6 || x6 | x6 | x6 | x6 | x6 | x6 | x6 | x6 || x6 | x6 | x6 | x6 | x6 | x6 | x6 | x6 || %57
 x6 | x6 | x6 | x6 | x6 | x6 | x6 | x6 || x6 | x6 | x6 | x6 | x6 | x6 | x6 | x6 ||[K:treble] x6 | %74
 x6 | x6 | x6 | x6 | x6 | x6 | x4[K:bass] x2 || x6 | x6 | x6 | x6 | x6 | x6 | x6 | x6 || x6 | x6 | %91
 x6 | x6 | x6 | x6 | x6 | x6 || x6 | x6 | x6 | x6 | x6 | x6 | x6 |[M:5/4] x10 ||[M:3/4] x6 | x6 | %107
 x6 | x6 | x6 | x6 | x6 |[K:treble] x6 | x6 | x6 | x6 | z2 z b3- | b6 | x6 |] %119
V:7
 x2 | x6 | x6 | x6 | x6 | x6 | x6 | x6 | x6 || x6 | x6 | x6 | x6 | x6 | x6 | x6 | x6 || x6 | x6 | %19
 x6 | x6 | x6 | x6 | x6 | x6 || x6 | x6 | x6 | x6 | x6 | x6 | x6 | x6 || x6 | x6 | x6 | x6 | x6 | %38
 x6 | x6 | x6 || x6 | x6 | x6 | x6 | x6 | x6 | x6 | x6 || x6 | x6 | x6 | x6 | x6 | x6 | x6 | %56
 x4[K:bass] x2 ||[K:treble] x6 | x6 | x6 | x6 | x6 | x6 | x6 | x6 || x6 | x6 | x6 | x6 | x6 | x6 | %71
 x6 | x6 || x6 | x6 | x6 |!8va(! x6 | x6 | x4!8va)! x2 | x6 | x6 || x6 | x6 | x6 | x6 | x6 | x6 | %87
 x6 | x6 || x6 | x6 | x6 | x6 | x6 | x6 | x6 | x6 || x6 | x6 | x6 | x6 | x6 | x6 | x6 | %104
[M:5/4] x10 ||[M:3/4] x3!8va(! x3 | x6 | x6 | x6 | x6 | x6 | x6 | x6 | x6 | x6 | x6 | x6 | b'6 | %118
 x6!8va)! |] %119
V:8
 x2 | x6 | x6 | x6 | x6 | x6 | x6 | x6 | x6 || x6 | x6 | x6 | x6 | x6 | x6 | x6 | x6 || x6 | x6 | %19
 x6 | x6 | x6 | x6 | x6 | x6 || x6 | x6 | x6 | x6 | x6 | x6 | x6 | x6 || x6 | x6 | x6 | x6 | x6 | %38
 x6 | x6 | x6 || x6 | x6 | x6 | x6 | x6 | x6 | x6 | x6 || x6 | x6 | x6 | x6 | x6 | x6 | x6 | %56
 x4[K:bass] x2 ||[K:treble] x6 | x6 | x6 | x6 | x6 | x6 | x6 | x6 || x6 | x6 | x6 | x6 | x6 | x6 | %71
 x6 | x6 || x6 | x6 | x6 |!8va(! x6 | x6 | x4!8va)! x2 | x6 | x6 || x6 | x6 | x6 | x6 | x6 | x6 | %87
 x6 | x6 || x6 | x6 | x6 | x6 | x6 | x6 | x6 | x6 || x6 | x6 | x6 | x6 | x6 | x6 | x6 | %104
[M:5/4] x10 ||[M:3/4] x3!8va(! x3 | x6 | x6 | x6 | x6 | x6 | x6 | x6 | x6 | x6 | x6 | x6 | %117
 z c'' !fermata!d''4 | x6!8va)! |] %119

